X: 1682
T: Polska ur E L Lindblads notbok
B: E L Lindblads notbok
B: [[http://www.smus.se/earkiv/fmk/browselarge.php?lang=sw&katalogid=M+177&bildnr=00101|SMUS - katalog M177 bild 101]] (no 29)
B: Jämför [[http://www.smus.se/earkiv/fmk/browselarge.php?lang=sw&katalogid=Ma+18&bildnr=00020|SMUS - katalog Ma18 bild 20]] nr 63 ur [[Notböcker/Lars Larssons notbok]]
B: Jämför [[http://www.smus.se/earkiv/fmk/browselarge.php?lang=sw&katalogid=MMD+47&bildnr=00007|MMD47 bild 7]] nr 16
B: Jämför [[http://www.samlingarna.sormlandsspel.se/wp-content/uploads/2013/04/1832.pdf|L-G Andersson/Högbergs notbok]] nr 30 sid 14
S: efter [[Personer/E L Lindblad]]
R: Polska
O: Uppland
N: för en annan variant se [[Musik/583|+]]
Z: Nils L
M: 3/4
L: 1/16
K: Bm
|: d4 fedc d4 | f4 agfg f4 || ABcd e2>A2 f2>A2 | g2>A2 f2>A2 e4 |
ABcd cecA dfdA | egeA dfdA e4 | G2b2 F2a2 E2g2 | fedc c4 d4 ::
Ta4 Ta4 Ta2bc' | (d'2a2) (a2g2) (g2f2) | TA4 TA4 A2Bc | (d2A2) (A2G2) (G2F2) :|
(:musicend:)
(:music:)
